X:1
T:Bank of Turf, The
R:jig
M:6/8
L:1/8
K:D
dB|ABA DFA|BAF DFA|dcd ede|~f3 def|
~g3 gab|afd B3|efe e2d|cBA AdB|
ABA DFA|BAF DFA|dcd ede|~f3 def|
~g3 gab|afd B2A|ABA efe|d3 d|]
cd|eAA efg|fdd fga|gfe fed|edB ABd|
eAA efg|fdd fga|gfe dcB|A3 z:|
</abc>
